;FLAVOR:Marlin
;TIME:2990
;Filament used: 3.15596m
;Layer height: 0.2
;MINX:24.424
;MINY:75.55
;MINZ:0.3
;MAXX:175.576
;MAXY:124.072
;MAXZ:7.7
;Generated with Cura_SteamEngine 4.13.1
M140 S60
M105
M190 S60
M104 S200
M105
M109 S200
M82 ;absolute extrusion mode
G28 ;Home
G1 Z15.0 F6000 ;Move the platform down 15mm
;Prime the extruder
G92 E0
G1 F200 E3
G92 E0
G92 E0
G92 E0
G1 F1500 E-6.5
;LAYER_COUNT:38
;LAYER:0
M107
G0 F3600 X30.994 Y83.278 Z0.3
;TYPE:SKIRT
G1 F1500 E0
G1 F1800 X31.734 Y83.002 E0.0394
G1 X32.498 Y82.802 E0.0788
G1 X33.278 Y82.681 E0.11818
G1 X34.086 Y82.639 E0.15855
G1 X35.963 Y82.639 E0.25219
G1 X36.061 Y82.586 E0.25775
G1 X36.523 Y82.385 E0.28289
G1 X36.596 Y82.356 E0.28681
G1 X37.344 Y82.102 E0.32622
G1 X38.114 Y81.925 E0.36563
G1 X38.897 Y81.827 E0.405
G1 X39.476 Y81.805 E0.43391
G1 X39.569 Y81.805 E0.43855
G1 X40.02 Y81.402 E0.46873
G1 X40.659 Y80.938 E0.50812
G1 X41.342 Y80.541 E0.54754
G1 X42.062 Y80.216 E0.58695
G1 X42.81 Y79.964 E0.62633
G1 X43.58 Y79.79 E0.66571
G1 X44.606 Y79.681 E0.71719
G1 X45.818 Y79.633 E0.7777
G1 X46.131 Y79.627 E0.79332
G1 X48.087 Y79.628 E0.8909
G1 X48.876 Y79.668 E0.93032
G1 X49.656 Y79.788 E0.96969
G1 X50.421 Y79.987 E1.00913
G1 X51.161 Y80.261 E1.04849
G1 X51.87 Y80.609 E1.0879
G1 X52.54 Y81.027 E1.1273
G1 X53.164 Y81.51 E1.16666
G1 X53.737 Y82.054 E1.20608
G1 X54.251 Y82.654 E1.2455
G1 X54.702 Y83.302 E1.28489
G1 X55.085 Y83.992 E1.32426
G1 X55.397 Y84.717 E1.36364
G1 X55.592 Y85.244 E1.39167
G1 X57.535 Y85.244 E1.48861
G1 X58.324 Y85.284 E1.52802
G1 X59.04 Y85.393 E1.56415
G1 X59.47 Y84.52 E1.6127
G1 X59.944 Y83.69 E1.66039
G1 X61.832 Y80.807 E1.83232
G1 X62.297 Y80.169 E1.87171
G1 X62.825 Y79.581 E1.91114
G1 X63.353 Y79.097 E1.94687
G1 X65.395 Y77.389 E2.07968
G1 X66.025 Y76.914 E2.11905
G1 X66.701 Y76.505 E2.15847
G1 X67.414 Y76.166 E2.19785
G1 X67.927 Y75.974 E2.22518
G1 X68.686 Y75.755 E2.26459
G1 X69.463 Y75.614 E2.30399
G1 X70.463 Y75.55 E2.35398
G1 X86.111 Y75.55 E3.13467
G1 X86.9 Y75.59 E3.17408
G1 X87.68 Y75.709 E3.21344
G1 X88.445 Y75.907 E3.25287
G1 X89.185 Y76.181 E3.29224
G1 X89.894 Y76.529 E3.33164
G1 X90.509 Y76.908 E3.36768
G1 X90.613 Y76.979 E3.37396
G1 X91.242 Y77.457 E3.41338
G1 X91.819 Y77.996 E3.45277
G1 X92.339 Y78.59 E3.49215
G1 X92.796 Y79.234 E3.53155
G1 X93.186 Y79.921 E3.57096
G1 X93.465 Y80.548 E3.6052
G1 X93.546 Y80.633 E3.61106
G1 X94.032 Y81.255 E3.65044
G1 X94.453 Y81.923 E3.68983
G1 X94.804 Y82.63 E3.72921
G1 X95.19 Y83.736 E3.78766
G1 X95.534 Y85.033 E3.8546
G1 X96.071 Y87.144 E3.96327
G1 X96.227 Y87.918 E4.00267
G1 X96.304 Y88.704 E4.04207
G1 X96.3 Y89.494 E4.08148
G1 X96.217 Y90.279 E4.12086
G1 X96.165 Y90.527 E4.13351
G1 X96.198 Y90.755 E4.145
G1 X99.731 Y90.755 E4.32126
G1 X100.52 Y90.795 E4.36067
G1 X101.3 Y90.914 E4.40004
G1 X102.065 Y91.112 E4.43946
G1 X102.805 Y91.386 E4.47883
G1 X103.514 Y91.734 E4.51823
G1 X103.989 Y92.018 E4.54584
G1 X104.635 Y92.473 E4.58527
G1 X105.231 Y92.99 E4.62463
G1 X105.773 Y93.565 E4.66405
G1 X106.253 Y94.191 E4.70341
G1 X106.668 Y94.864 E4.74285
G1 X106.898 Y95.316 E4.76816
G1 X107.888 Y97.434 E4.8848
G1 X108.652 Y98.918 E4.96807
G1 X109.47 Y98.919 E5.00888
G1 X109.687 Y98.883 E5.01985
G1 X110.476 Y98.834 E5.05929
G1 X110.837 Y98.848 E5.07732
G1 X111.627 Y98.844 E5.11673
G1 X111.682 Y98.849 E5.11949
G1 X112.278 Y98.841 E5.14922
G1 X113.065 Y98.911 E5.18864
G1 X113.841 Y99.059 E5.22805
G1 X114.327 Y99.195 E5.25323
G1 X114.963 Y99.395 E5.28649
G1 X115.397 Y99.546 E5.30942
G1 X116.104 Y99.815 E5.34716
G1 X116.827 Y100.133 E5.38656
G1 X117.464 Y100.491 E5.42302
G1 X117.496 Y100.511 E5.4249
G1 X118.024 Y100.88 E5.45704
G1 X118.072 Y100.88 E5.45943
G1 X118.532 Y100.464 E5.49038
G1 X119.168 Y99.996 E5.52977
G1 X120.142 Y99.449 E5.5855
G1 X120.227 Y99.409 E5.59019
G1 X120.957 Y99.11 E5.62955
G1 X121.715 Y98.886 E5.66898
G1 X122.491 Y98.739 E5.70838
G1 X123.547 Y98.667 E5.76119
G1 X135.994 Y98.666 E6.38217
G1 X136.783 Y98.706 E6.42159
G1 X137.564 Y98.825 E6.461
G1 X138.328 Y99.023 E6.50038
G1 X139.069 Y99.297 E6.53979
G1 X139.778 Y99.645 E6.57919
G1 X140.009 Y99.789 E6.59277
G1 X140.377 Y99.798 E6.61114
G1 X141.166 Y99.758 E6.65055
G1 X141.882 Y99.794 E6.68632
G1 X142.654 Y99.761 E6.72487
G1 X143.445 Y99.808 E6.7644
G1 X143.995 Y99.779 E6.79188
G1 X144.56 Y99.807 E6.8201
G1 X144.662 Y99.792 E6.82525
G1 X145.451 Y99.758 E6.86465
G1 X146.081 Y99.795 E6.89613
G1 X146.845 Y99.757 E6.9343
G1 X147.634 Y99.798 E6.97371
G1 X148.414 Y99.919 E7.01309
G1 X148.942 Y100.016 E7.03987
G1 X148.998 Y100.016 E7.04267
G1 X149.787 Y100.056 E7.08208
G1 X150.567 Y100.175 E7.12145
G1 X151.332 Y100.373 E7.16087
G1 X152.072 Y100.647 E7.20024
G1 X152.781 Y100.995 E7.23964
G1 X153.452 Y101.413 E7.27908
G1 X154.076 Y101.896 E7.31845
G1 X154.583 Y102.366 E7.35294
G1 X155.123 Y102.943 E7.39237
G1 X155.602 Y103.571 E7.43177
G1 X155.685 Y103.707 E7.43972
G1 X166.396 Y103.706 E7.9741
G1 X167.185 Y103.746 E8.01351
G1 X167.966 Y103.865 E8.05292
G1 X168.73 Y104.063 E8.0923
G1 X169.471 Y104.337 E8.13171
G1 X170.18 Y104.685 E8.17112
G1 X170.85 Y105.102 E8.21049
G1 X171.475 Y105.585 E8.2499
G1 X171.912 Y105.991 E8.27966
G1 X172.149 Y106.188 E8.29503
G1 X172.925 Y106.954 E8.34943
G1 X173.321 Y107.382 E8.37852
G1 X173.847 Y107.971 E8.41792
G1 X174.311 Y108.61 E8.45732
G1 X174.708 Y109.292 E8.49669
G1 X175.034 Y110.012 E8.53612
G1 X175.286 Y110.76 E8.5755
G1 X175.46 Y111.53 E8.61488
G1 X175.556 Y112.314 E8.65429
G1 X175.576 Y112.868 E8.68194
G1 X175.576 Y114.013 E8.73907
G1 X175.536 Y114.802 E8.77848
G1 X175.417 Y115.582 E8.81785
G1 X175.219 Y116.347 E8.85727
G1 X174.945 Y117.087 E8.89664
G1 X174.597 Y117.796 E8.93604
G1 X174.179 Y118.467 E8.97548
G1 X173.696 Y119.091 E9.01485
G1 X173.163 Y119.654 E9.05353
G1 X172.883 Y119.967 E9.07448
G1 X172.328 Y120.529 E9.11389
G1 X171.912 Y120.888 E9.1413
G1 X171.326 Y121.418 E9.18072
G1 X170.69 Y121.885 E9.22009
G1 X170.01 Y122.286 E9.25947
G1 X169.446 Y122.545 E9.29043
G1 X168.952 Y122.889 E9.32047
G1 X168.261 Y123.273 E9.35991
G1 X167.536 Y123.585 E9.39928
G1 X166.783 Y123.822 E9.43867
G1 X166.009 Y123.981 E9.47809
G1 X165.224 Y124.062 E9.51746
G1 X164.822 Y124.072 E9.53752
G1 X161.821 Y124.072 E9.68724
G1 X161.032 Y124.032 E9.72666
G1 X160.285 Y123.918 E9.76436
G1 X155.626 Y123.918 E9.9968
G1 X154.837 Y123.878 E10.03621
G1 X154.057 Y123.759 E10.07557
G1 X153.292 Y123.561 E10.115
G1 X152.552 Y123.287 E10.15437
G1 X151.843 Y122.939 E10.19377
G1 X151.172 Y122.521 E10.23321
G1 X150.573 Y122.057 E10.27101
G1 X116.762 Y122.058 E11.95785
G1 X116.47 Y122.23 E11.97476
G1 X115.752 Y122.56 E12.01418
G1 X115.005 Y122.815 E12.05356
G1 X114.236 Y122.994 E12.09295
G1 X113.775 Y123.053 E12.11614
G1 X113.203 Y123.248 E12.14629
G1 X112.434 Y123.427 E12.18568
G1 X111.65 Y123.527 E12.22511
G1 X111.055 Y123.55 E12.25482
G1 X109.757 Y123.55 E12.31957
G1 X108.968 Y123.51 E12.35899
G1 X108.601 Y123.454 E12.37751
G1 X103.882 Y123.454 E12.61294
G1 X103.077 Y123.412 E12.65316
G1 X102.936 Y123.43 E12.66025
G1 X102.32 Y123.454 E12.69101
G1 X100.819 Y123.454 E12.76589
G1 X100.03 Y123.414 E12.8053
G1 X99.738 Y123.431 E12.8199
G1 X99.143 Y123.454 E12.8496
G1 X94.944 Y123.454 E13.05909
G1 X94.139 Y123.412 E13.09931
G1 X93.998 Y123.43 E13.1064
G1 X93.382 Y123.454 E13.13716
G1 X93.308 Y123.454 E13.14085
G1 X92.649 Y123.538 E13.17399
G1 X91.86 Y123.559 E13.21337
G1 X91.454 Y123.528 E13.23368
G1 X83.37 Y123.529 E13.637
G1 X82.581 Y123.489 E13.67641
G1 X81.801 Y123.37 E13.71577
G1 X81.036 Y123.172 E13.7552
G1 X80.295 Y122.898 E13.79461
G1 X79.586 Y122.55 E13.83402
G1 X78.916 Y122.133 E13.87339
G1 X78.368 Y121.709 E13.90796
G1 X77.974 Y121.872 E13.92923
G1 X77.218 Y122.098 E13.96859
G1 X76.442 Y122.247 E14.00802
G1 X75.363 Y122.322 E14.06198
G1 X54.867 Y122.322 E15.08453
G1 X54.078 Y122.282 E15.12394
G1 X53.298 Y122.163 E15.16331
G1 X52.533 Y121.965 E15.20273
G1 X52.01 Y121.772 E15.23054
G1 X51.744 Y122.012 E15.24842
G1 X51.107 Y122.478 E15.28779
G1 X50.426 Y122.878 E15.3272
G1 X49.708 Y123.208 E15.36662
G1 X48.961 Y123.462 E15.40598
G1 X48.191 Y123.64 E15.44541
G1 X47.408 Y123.74 E15.48479
G1 X46.619 Y123.759 E15.52417
G1 X45.994 Y123.718 E15.55542
G1 X39.984 Y123.078 E15.85695
G1 X39.885 Y123.109 E15.86213
G1 X39.111 Y123.268 E15.90155
G1 X38.326 Y123.349 E15.94092
G1 X37.536 Y123.349 E15.98033
G1 X36.75 Y123.27 E16.01974
G1 X35.977 Y123.112 E16.05911
G1 X35.223 Y122.876 E16.09852
G1 X34.612 Y122.621 E16.13155
G1 X34.47 Y122.555 E16.13937
G1 X34.035 Y122.488 E16.16132
G1 X33.261 Y122.33 E16.20074
G1 X32.508 Y122.094 E16.24011
G1 X31.782 Y121.782 E16.27953
G1 X31.091 Y121.4 E16.31892
G1 X30.443 Y120.949 E16.35831
G1 X29.844 Y120.435 E16.39769
G1 X29.299 Y119.863 E16.4371
G1 X29.168 Y119.695 E16.44773
G1 X28.558 Y119.395 E16.48165
G1 X27.887 Y118.977 E16.52109
G1 X27.263 Y118.494 E16.56045
G1 X26.826 Y118.089 E16.59018
G1 X26.709 Y117.972 E16.59843
G1 X26.179 Y117.386 E16.63785
G1 X25.712 Y116.75 E16.67722
G1 X25.311 Y116.07 E16.7166
G1 X24.981 Y115.352 E16.75603
G1 X24.726 Y114.605 E16.79541
G1 X24.547 Y113.836 E16.8348
G1 X24.447 Y113.052 E16.87423
G1 X24.424 Y112.457 E16.90394
G1 X24.424 Y93.35 E17.85719
G1 X24.464 Y92.561 E17.8966
G1 X24.583 Y91.781 E17.93597
G1 X24.736 Y91.166 E17.96759
G1 X24.75 Y91.118 E17.97008
G1 X25.009 Y90.372 E18.00948
G1 X25.343 Y89.656 E18.04889
G1 X25.62 Y89.174 E18.07663
G1 X27.373 Y86.364 E18.24186
G1 X27.825 Y85.716 E18.28128
G1 X28.339 Y85.117 E18.32066
G1 X28.912 Y84.573 E18.36008
G1 X29.536 Y84.089 E18.39948
G1 X30.191 Y83.68 E18.438
G1 X30.286 Y83.627 E18.44343
G1 X30.994 Y83.278 E18.48281
G0 F3600 X31.171 Y83.637
G1 F1800 X31.893 Y83.372 E18.52118
G1 X32.638 Y83.182 E18.55954
G1 X33.399 Y83.071 E18.59791
G1 X34.086 Y83.039 E18.63222
G1 X36.066 Y83.039 E18.731
G1 X36.671 Y82.757 E18.7643
G1 X36.744 Y82.728 E18.76822
G1 X37.473 Y82.481 E18.80662
G1 X38.223 Y82.312 E18.84498
G1 X38.987 Y82.221 E18.88336
G1 X39.721 Y82.205 E18.91999
G1 X40.287 Y81.701 E18.9578
G1 X40.911 Y81.252 E18.99615
G1 X41.579 Y80.87 E19.03455
G1 X42.283 Y80.559 E19.07294
G1 X43.015 Y80.323 E19.11131
G1 X43.767 Y80.165 E19.14965
G1 X44.622 Y80.081 E19.19251
G1 X45.834 Y80.033 E19.25303
G1 X46.131 Y80.027 E19.26785
G1 X48.087 Y80.028 E19.36543
G1 X48.855 Y80.068 E19.4038
G1 X49.615 Y80.188 E19.44218
G1 X50.358 Y80.386 E19.48055
G1 X51.076 Y80.66 E19.51889
G1 X51.763 Y81.008 E19.55731
G1 X52.409 Y81.424 E19.59564
G1 X53.009 Y81.906 E19.63404
G1 X53.556 Y82.447 E19.67242
G1 X54.043 Y83.042 E19.71078
G1 X54.466 Y83.684 E19.74914
G1 X54.82 Y84.367 E19.78752
G1 X55.022 Y84.856 E19.81391
G1 X55.314 Y85.644 E19.85584
G1 X57.535 Y85.644 E19.96665
G1 X58.303 Y85.684 E20.00501
G1 X59.063 Y85.803 E20.04339
G1 X59.259 Y85.855 E20.05351
G1 X59.829 Y84.697 E20.1179
G1 X60.278 Y83.909 E20.16315
G1 X62.166 Y81.026 E20.33508
G1 X62.621 Y80.405 E20.37349
G1 X63.137 Y79.835 E20.41185
G1 X63.609 Y79.404 E20.44374
G1 X65.651 Y77.696 E20.57655
G1 X66.266 Y77.234 E20.61493
G1 X66.926 Y76.838 E20.65333
G1 X67.623 Y76.513 E20.69169
G1 X68.057 Y76.352 E20.71479
G1 X68.797 Y76.14 E20.75319
G1 X69.554 Y76.006 E20.79155
G1 X70.463 Y75.95 E20.83698
G1 X86.111 Y75.95 E21.61766
G1 X86.879 Y75.99 E21.65603
G1 X87.639 Y76.109 E21.69441
G1 X88.382 Y76.307 E21.73277
G1 X89.101 Y76.581 E21.77116
G1 X89.787 Y76.928 E21.80951
G1 X90.283 Y77.238 E21.8387
G1 X90.387 Y77.309 E21.84498
G1 X90.999 Y77.776 E21.88338
G1 X91.559 Y78.303 E21.92175
G1 X92.062 Y78.885 E21.96013
G1 X92.501 Y79.516 E21.99848
G1 X92.872 Y80.19 E22.03686
G1 X93.109 Y80.731 E22.06633
G1 X93.269 Y80.925 E22.07887
G1 X93.739 Y81.534 E22.11725
G1 X94.143 Y82.189 E22.15565
G1 X94.477 Y82.882 E22.19403
G1 X94.803 Y83.839 E22.24447
G1 X95.147 Y85.132 E22.31122
G1 X95.684 Y87.243 E22.41989
G1 X95.834 Y87.997 E22.45824
G1 X95.906 Y88.763 E22.49663
G1 X95.897 Y89.532 E22.535
G1 X95.809 Y90.296 E22.57337
G1 X95.759 Y90.519 E22.58477
G1 X95.832 Y91.026 E22.61032
G1 X95.858 Y91.155 E22.61689
G1 X99.731 Y91.155 E22.81011
G1 X100.499 Y91.195 E22.84848
G1 X101.259 Y91.314 E22.88686
G1 X102.002 Y91.512 E22.92522
G1 X102.721 Y91.786 E22.96361
G1 X103.675 Y92.294 E23.01753
G1 X103.775 Y92.357 E23.02343
G1 X104.404 Y92.8 E23.06181
G1 X104.983 Y93.306 E23.10017
G1 X105.507 Y93.87 E23.13858
G1 X105.969 Y94.485 E23.17696
G1 X106.535 Y95.485 E23.23428
G1 X107.527 Y97.607 E23.35115
G1 X108.408 Y99.318 E23.44716
G1 X109.503 Y99.319 E23.50179
G1 X109.752 Y99.278 E23.51438
G1 X110.52 Y99.234 E23.55276
G1 X110.899 Y99.245 E23.57168
G1 X111.68 Y99.248 E23.61064
G1 X112.323 Y99.244 E23.64272
G1 X113.089 Y99.319 E23.68112
G1 X114.207 Y99.577 E23.73836
G1 X114.843 Y99.777 E23.77162
G1 X115.255 Y99.92 E23.79338
G1 X115.962 Y100.189 E23.83112
G1 X116.665 Y100.499 E23.86945
G1 X117.252 Y100.83 E23.90307
G1 X117.284 Y100.85 E23.90496
G1 X117.898 Y101.28 E23.94235
G1 X118.243 Y101.262 E23.95959
G1 X118.816 Y100.748 E23.99799
G1 X119.439 Y100.297 E24.03636
G1 X120.312 Y99.811 E24.08621
G1 X120.397 Y99.771 E24.0909
G1 X121.109 Y99.48 E24.12927
G1 X121.848 Y99.265 E24.16767
G1 X122.604 Y99.127 E24.20601
G1 X123.547 Y99.067 E24.25315
G1 X135.994 Y99.066 E24.87413
G1 X136.763 Y99.106 E24.91255
G1 X137.522 Y99.225 E24.95088
G1 X138.266 Y99.423 E24.98929
G1 X138.984 Y99.697 E25.02763
G1 X139.671 Y100.044 E25.06603
G1 X139.9 Y100.179 E25.07929
G1 X140.477 Y100.19 E25.10809
G1 X141.246 Y100.158 E25.14648
G1 X141.884 Y100.199 E25.17838
G1 X141.962 Y100.188 E25.18231
G1 X142.731 Y100.162 E25.2207
G1 X143.39 Y100.208 E25.25365
G1 X144.075 Y100.179 E25.28786
G1 X144.577 Y100.21 E25.31295
G1 X144.759 Y100.185 E25.32212
G1 X145.528 Y100.159 E25.36051
G1 X146.085 Y100.198 E25.38836
G1 X146.156 Y100.188 E25.39194
G1 X146.924 Y100.158 E25.43028
G1 X147.692 Y100.207 E25.46868
G1 X148.45 Y100.336 E25.50704
G1 X148.998 Y100.416 E25.53467
G1 X149.766 Y100.456 E25.57304
G1 X150.526 Y100.575 E25.61141
G1 X151.269 Y100.773 E25.64978
G1 X151.988 Y101.047 E25.68816
G1 X152.674 Y101.394 E25.72652
G1 X153.321 Y101.81 E25.76489
G1 X154.136 Y102.49 E25.81785
G1 X154.306 Y102.654 E25.82963
G1 X154.831 Y103.216 E25.868
G1 X155.295 Y103.83 E25.9064
G1 X155.462 Y104.107 E25.92253
G1 X166.396 Y104.106 E26.46803
G1 X167.164 Y104.146 E26.5064
G1 X167.924 Y104.265 E26.54478
G1 X168.668 Y104.463 E26.58319
G1 X169.386 Y104.737 E26.62153
G1 X170.073 Y105.084 E26.65993
G1 X170.72 Y105.5 E26.69831
G1 X171.32 Y105.981 E26.73667
G1 X171.722 Y106.365 E26.76441
G1 X171.994 Y106.583 E26.7818
G1 X172.625 Y107.218 E26.82646
G1 X173.051 Y107.678 E26.85774
G1 X173.561 Y108.253 E26.89608
G1 X174.009 Y108.879 E26.93449
G1 X174.389 Y109.547 E26.97283
G1 X174.698 Y110.251 E27.01119
G1 X174.932 Y110.984 E27.04957
G1 X175.089 Y111.737 E27.08795
G1 X175.176 Y112.868 E27.14454
G1 X175.176 Y114.013 E27.20167
G1 X175.136 Y114.781 E27.24003
G1 X175.017 Y115.541 E27.27841
G1 X174.819 Y116.284 E27.31677
G1 X174.545 Y117.003 E27.35516
G1 X174.198 Y117.689 E27.39352
G1 X173.782 Y118.336 E27.43189
G1 X173.301 Y118.936 E27.47026
G1 X173.066 Y119.162 E27.48652
G1 X172.585 Y119.701 E27.52256
G1 X172.043 Y120.247 E27.56095
G1 X171.63 Y120.606 E27.58825
G1 X171.058 Y121.12 E27.62661
G1 X170.436 Y121.573 E27.665
G1 X169.771 Y121.959 E27.70336
G1 X169.264 Y122.186 E27.73108
G1 X169.211 Y122.23 E27.73451
G1 X168.569 Y122.653 E27.77287
G1 X167.886 Y123.008 E27.81127
G1 X167.171 Y123.289 E27.8496
G1 X166.429 Y123.495 E27.88802
G1 X165.671 Y123.623 E27.92637
G1 X164.822 Y123.672 E27.9688
G1 X161.821 Y123.672 E28.11852
G1 X161.053 Y123.632 E28.15689
G1 X160.325 Y123.518 E28.19365
G1 X155.626 Y123.518 E28.42808
G1 X154.858 Y123.478 E28.46645
